build/svg/cmd/sc_symbolshapes.diamond-bevel.svg

<svg xmlns="http://www.w3.org/2000/svg" viewBox="0 0 16 16"><path d="M8 2L7 3 3 7 2 8l1 1 4 4 1 1 1-1 4-4 1-1-1-1-4-4-1-1z" stroke="#000" stroke-linejoin="round" stroke-width="2" opacity=".6"/><path d="M8 2L2 8l6 6 6-6z" fill="#6d6d6d"/><path d="M7 3L3 7h3l1-1zm2 0v3l1 1h3zM3 9l4 4v-3L6 9zm7 0l-1 1v3l4-4z" fill="#fff"/></svg>

<?xml version="1.0" encoding="UTF-8" standalone="no"?>
<svg
   xmlns:dc="http://purl.org/dc/elements/1.1/"
   xmlns:cc="http://creativecommons.org/ns#"
   xmlns:rdf="http://www.w3.org/1999/02/22-rdf-syntax-ns#"
   xmlns:svg="http://www.w3.org/2000/svg"
   xmlns="http://www.w3.org/2000/svg"
   xmlns:sodipodi="http://sodipodi.sourceforge.net/DTD/sodipodi-0.dtd"
   xmlns:inkscape="http://www.inkscape.org/namespaces/inkscape"
   viewBox="0 0 16 16"
   version="1.1"
   id="svg6"
   sodipodi:docname="sc_symbolshapes.diamond-bevel.svg"
   inkscape:export-filename="/home/jupiter007/Libreoffice yaru theme fullcolor/build/cmd/sc_symbolshapes.diamond-bevel.png"
   inkscape:export-xdpi="96"
   inkscape:export-ydpi="96"
   inkscape:version="0.92.4 (5da689c313, 2019-01-14)">
  <metadata
     id="metadata12">
    <rdf:RDF>
      <cc:Work
         rdf:about="">
        <dc:format>image/svg+xml</dc:format>
        <dc:type
           rdf:resource="http://purl.org/dc/dcmitype/StillImage" />
      </cc:Work>
    </rdf:RDF>
  </metadata>
  <defs
     id="defs10" />
  <sodipodi:namedview
     pagecolor="#ffffff"
     bordercolor="#666666"
     borderopacity="1"
     objecttolerance="10"
     gridtolerance="10"
     guidetolerance="10"
     inkscape:pageopacity="0"
     inkscape:pageshadow="2"
     inkscape:window-width="1920"
     inkscape:window-height="1011"
     id="namedview8"
     showgrid="false"
     inkscape:zoom="14.75"
     inkscape:cx="0.44067797"
     inkscape:cy="8"
     inkscape:window-x="0"
     inkscape:window-y="32"
     inkscape:window-maximized="1"
     inkscape:current-layer="svg6" />
  <path
     style="fill:#000000;fill-opacity:1;stroke:#000000;stroke-linejoin:round;stroke-width:2;stroke-miterlimit:4;stroke-dasharray:none;opacity:0.6"
     d="M 8 2 L 7 3 L 3 7 L 2 8 L 3 9 L 7 13 L 8 14 L 9 13 L 13 9 L 14 8 L 13 7 L 9 3 L 8 2 z "
     id="path824" />
  <path
     d="m8 2-6 6 6 6 6-6z"
     fill="#b3b3b3"
     id="path2"
     style="fill:#6d6d6d;fill-opacity:1" />
  <path
     d="m7 3-4 4h3l1-1zm2 0v3l1 1h3zm-6 6 4 4v-3l-1-1zm7 0-1 1v3l4-4z"
     fill="#232629"
     id="path4"
     style="fill:#ffffff" />
</svg>
